gama.ui.shared/icons_svg/dark/navigator/files/file.text.svg

<svg height="17" viewBox="-634.997 -3501.862 17 17" width="17" xmlns="http://www.w3.org/2000/svg"><g fill="none"><path d="m-634.49694-3501.362h15.999997v15.999997h-15.999997z"/><path d="m-630.47996-3500.758 4.96-.16 3.36-.16 3.2 3.2-.16 11.68h-11.36z" fill="#666566"/><path d="m-618.49774-3497.7386v10.3776c0 1.1046-.89546 2-2 2h-8.8c-1.10456 0-2-.8954-2-2v-12c0-1.1046.89544-2 2-2h7.17764c.1062-.0067.2167.0287.3052.117l3.2 3.2c.0885.0886.1239.199.11716.3054zm-4-2.8224h-6.8c-.66276 0-1.2.5373-1.2 1.2v12c0 .6627.53724 1.2 1.2 1.2h8.8c.66274 0 1.2-.5373 1.2-1.2v-10h-2.8c-.22092 0-.4-.179-.4-.4zm.8.5657v1.8343h1.83434zm-6 5.0333c-.22092 0-.4-.179-.4-.4 0-.2207.17908-.4.4-.4h5.6c.22094 0 .4.1793.4.4 0 .221-.17906.4-.4.4zm0 2.4c-.22092 0-.4-.179-.4-.4 0-.2207.17908-.4.4-.4h5.6c.22094 0 .4.1793.4.4 0 .221-.17906.4-.4.4zm0 2.4c-.22092 0-.4-.179-.4-.4 0-.2207.17908-.4.4-.4h4c.22094 0 .4.1793.4.4 0 .221-.17906.4-.4.4z" fill="#fff"/></g></svg>

<?xml version="1.0" encoding="UTF-8" standalone="no"?>
<!DOCTYPE svg PUBLIC "-//W3C//DTD SVG 1.1//EN" "http://www.w3.org/Graphics/SVG/1.1/DTD/svg11.dtd">
<svg xmlns="http://www.w3.org/2000/svg" xmlns:xl="http://www.w3.org/1999/xlink" version="1.1" xmlns:dc="http://purl.org/dc/elements/1.1/" viewBox="-634.99694 -3501.862 16.999997 16.999997" width="16.999997" height="16.999997">
  <defs/>
  <g id="SOURCES" stroke-opacity="1" fill="none" stroke="none" fill-opacity="1" stroke-dasharray="none">
    <title>SOURCES</title>
    <g id="SOURCES_Dark">
      <title>Dark</title>
      <g id="Graphic_11652">
        <rect x="-634.49694" y="-3501.362" width="15.999997" height="15.999997" stroke="gray" stroke-opacity="0" stroke-linecap="round" stroke-linejoin="round" stroke-width=".25"/>
      </g>
      <g id="Graphic_11651">
        <path d="M -630.47996 -3500.758 L -625.51996 -3500.918 L -622.15996 -3501.078 L -618.95996 -3497.878 L -619.11996 -3486.198 L -630.47996 -3486.198 Z" fill="#666566"/>
      </g>
      <g id="Graphic_11650">
        <path d="M -618.49774 -3497.7386 L -618.49774 -3487.361 C -618.49774 -3486.2564 -619.3932 -3485.361 -620.49774 -3485.361 L -629.29774 -3485.361 C -630.4023 -3485.361 -631.29774 -3486.2564 -631.29774 -3487.361 L -631.29774 -3499.361 C -631.29774 -3500.4656 -630.4023 -3501.361 -629.29774 -3501.361 L -622.1201 -3501.361 C -622.0139 -3501.3677 -621.9034 -3501.3323 -621.8149 -3501.244 L -618.6149 -3498.044 C -618.5264 -3497.9554 -618.491 -3497.845 -618.49774 -3497.7386 Z M -622.49774 -3500.561 L -629.29774 -3500.561 C -629.9605 -3500.561 -630.49774 -3500.0237 -630.49774 -3499.361 L -630.49774 -3487.361 C -630.49774 -3486.6983 -629.9605 -3486.161 -629.29774 -3486.161 L -620.49774 -3486.161 C -619.835 -3486.161 -619.29774 -3486.6983 -619.29774 -3487.361 L -619.29774 -3497.361 L -622.09774 -3497.361 C -622.31866 -3497.361 -622.49774 -3497.54 -622.49774 -3497.761 Z M -621.69774 -3499.9953 L -621.69774 -3498.161 L -619.8634 -3498.161 Z M -627.69774 -3494.962 C -627.91866 -3494.962 -628.09774 -3495.141 -628.09774 -3495.362 C -628.09774 -3495.5827 -627.91866 -3495.762 -627.69774 -3495.762 L -622.09774 -3495.762 C -621.8768 -3495.762 -621.69774 -3495.5827 -621.69774 -3495.362 C -621.69774 -3495.141 -621.8768 -3494.962 -622.09774 -3494.962 Z M -627.69774 -3492.562 C -627.91866 -3492.562 -628.09774 -3492.741 -628.09774 -3492.962 C -628.09774 -3493.1827 -627.91866 -3493.362 -627.69774 -3493.362 L -622.09774 -3493.362 C -621.8768 -3493.362 -621.69774 -3493.1827 -621.69774 -3492.962 C -621.69774 -3492.741 -621.8768 -3492.562 -622.09774 -3492.562 Z M -627.69774 -3490.162 C -627.91866 -3490.162 -628.09774 -3490.341 -628.09774 -3490.562 C -628.09774 -3490.7827 -627.91866 -3490.962 -627.69774 -3490.962 L -623.69774 -3490.962 C -623.4768 -3490.962 -623.29774 -3490.7827 -623.29774 -3490.562 C -623.29774 -3490.341 -623.4768 -3490.162 -623.69774 -3490.162 Z" fill="white"/>
      </g>
    </g>
  </g>
</svg>
